X:1163
T:Ty the Pig.
C:John Malchair's Third Collection of Tunes
F:https://www.vwml.org/record/Malchair/3619/p116
F:www.vwml.org/topics/historic-dance-and-tune-books/Malchair
Z:Eric Conrad Feb 2020
N:NB1 Repeats added.
N:NB2 Meter changed from 6/4 to 6/8.
W:Ed.of 1695.
W:\u00a0
% spelling of impossible appears to have 'a' before archaic long 's' (not 'f').
% The 'a' might simply be a badly written 'o'.
W:The titles of the old Tunes so often Varie that it is impa\u017fsible to avoid
W:writing Duplicates. See the Same Coll.2.p.44.
M:6/8   % original was in 6/4
L:1/8   % note lengths halved.
K:F
P:A
|: "_NB1,2"F | F>GA GED | F2G A2A | B>cd cAF | B2G E2 :|
P:B
|: c | cAA F2d | dBB G2B | cAc dBd | cAc dde | f3- f>ed |
c2A F3 | c2A c3 | c2A d2e | fed cAF | c2A F2 :|

